X: 1514
T: the Blue Garters
T: na gairteini.de gorm.
R: reel
B: O'Neill's 1850 "Music of Ireland" #1514
O: McFadden
Z: transcribed by John B. Walsh, walsh@math.ubc.ca 8/23/96
Z: Compacted via repeats and multiple endings [JC]
M: C|
L: 1/8
K: F
e |:\
f>c ((3ccc) a2(gf) | ((3gab) (ag) fdde |\
[1 f>c ((3ccc) a2gf | ((3gab) ag f2(fg) :|\
[2 fgag fdcA | BGcA F2F |]
|: c \
|  AFcF AFcF | BGdG BGdG |\
[1 AFcF AFcF | BGcA F2F :|\
[2 FA ((3cde) fdcA | BGcA F2F |]
